icon-themes/colibre_svg/cmd/lc_slidemasterpage.svg

<svg viewBox="0 0 24 24" xmlns="http://www.w3.org/2000/svg"><path d="m3 5v13h8.673828c2.505962-2.504405 5.006383-5.009264 7.515625-7.490234.334923-.334515.788676-.509766 1.230469-.509766.19539 0 .391333.038717.580078.105469v-5.105469zm18 12.216797c-.269126.261333-.540359.520981-.808594.783203h.808594z" fill="#fff"/><path d="m2 4v15h8.955078l.091797-.375c.209166-.208952.417878-.416055.626953-.625h-8.673828v-13h18v5.105469c.238067.084194.463775.215975.652344.404297l.347656.347656v-6.857422zm3 6v1h1v-1zm2 0v1h11.697266c.100872-.099894.201834-.200955.302734-.300781v-.699219zm-2 2v1h1v-1zm2 0v1h9.691406c.334167-.33264.667602-.667949 1.001953-1zm-2 2v1h1v-1zm2 0v1h7.683594c.334339-.333851.669526-.666543 1.003906-1zm15 2.248047c-.334085.322182-.667143.645531-1 .96875v.783203h-.808594c-.340857.333217-.684163.664999-1.023437 1h2.832031z" fill="#4d82b8"/><g fill="#eac282"><path d="m5 7v2h14v-2z"/><path d="m17.480469 13.611328-5.529297 5.523438-.951172 3.865234 3.806641-1.011719 5.509765-5.544922z"/><path d="m20.419922 11c-.189562 0-.378184.07172-.523438.216797l-1.673828 1.669922 2.847656 2.849609 1.710938-1.638672c.290506-.290127.290506-.756747 0-1.046875l-1.835938-1.833984c-.145254-.145064-.335828-.216797-.52539-.216797z"/></g></svg>

<svg xmlns="http://www.w3.org/2000/svg" viewBox="0 0 24 24">
  <path
     style="fill:#ffffff"
     d="M 3 5 L 3 18 L 11.673828 18 C 14.17979 15.495595 16.680211 12.990736 19.189453 10.509766 C 19.524376 10.175251 19.978129 10 20.419922 10 C 20.615312 10 20.811255 10.038717 21 10.105469 L 21 5 L 3 5 z M 21 17.216797 C 20.730874 17.47813 20.459641 17.737778 20.191406 18 L 21 18 L 21 17.216797 z "
     />
  <path
     style="fill:#4d82b8"
     d="M 2 4 L 2 19 L 10.955078 19 L 11.046875 18.625 C 11.256041 18.416048 11.464753 18.208945 11.673828 18 L 3 18 L 3 5 L 21 5 L 21 10.105469 C 21.238067 10.189663 21.463775 10.321444 21.652344 10.509766 L 22 10.857422 L 22 4 L 2 4 z M 5 10 L 5 11 L 6 11 L 6 10 L 5 10 z M 7 10 L 7 11 L 18.697266 11 C 18.798138 10.900106 18.8991 10.799045 19 10.699219 L 19 10 L 7 10 z M 5 12 L 5 13 L 6 13 L 6 12 L 5 12 z M 7 12 L 7 13 L 16.691406 13 C 17.025573 12.66736 17.359008 12.332051 17.693359 12 L 7 12 z M 5 14 L 5 15 L 6 15 L 6 14 L 5 14 z M 7 14 L 7 15 L 14.683594 15 C 15.017933 14.666149 15.35312 14.333457 15.6875 14 L 7 14 z M 22 16.248047 C 21.665915 16.570229 21.332857 16.893578 21 17.216797 L 21 18 L 20.191406 18 C 19.850549 18.333217 19.507243 18.664999 19.167969 19 L 22 19 L 22 16.248047 z "
     />
  <path
     style="fill:#eac282"
     d="M 5,7 V 9 H 19 V 7 Z"
     />
  <g
     fill="#eac282"
     >
    <path
       d="m17.480469 13.611328-5.529297 5.523438-.951172 3.865234 3.806641-1.011719 5.509765-5.544922z"
       />
    <path
       d="m20.419922 11c-.189562 0-.378184.07172-.523438.216797l-1.673828 1.669922 2.847656 2.849609 1.710938-1.638672c.290506-.290127.290506-.756747 0-1.046875l-1.835938-1.833984c-.145254-.145064-.335828-.216797-.52539-.216797z"
       />
  </g>
</svg>
